X: 1848
T: Sûziş-i Aşkınla Ben...
C: Musa Süreyya Bey
O: Turkey
F: http://compmusic.upf.edu/node/140
N: nihavent--sarki--agiraksak--suzis-i_askinla--musa_sureyya_bey
N: makam= nihavent
N: form= sarki
N: usul= agiraksak = 9/4
M: 9/4
L: 1/16
K: C _B _e  
Q: 1/4=150
%%MIDI tuningsystem comma53
G3A B2 c2 d2 e2 d2 c2 B2  | d12 e2 d2 ^c2  | \
w:  ARANAĞME  |   | 
d2 e2 ^f2 g2 a2 b2 a2 g2 f2  | 
w:   | 
g6 f2 e2 d2 e4 z2  | c4 g4 f4 e4 d2  | \
w:   |   | 
c4 e4 d2 c2 B2 A2 B2  | A4 B4 d2 c2 B2 A2 G2  | 
w:   |   | 
B2 A2 G2 ^F2 G8 z2  | G3A B2 c2 d2 e2 d2 c2 B2  | \
w:   |  ARANAĞME  | 
d12 e2 d2 ^c2  | d2 e2 ^f2 g2 a2 b2 a2 g2 f2  | 
w:   |   | 
g6 f2 e2 d2 e4 z2  | c4 g4 f4 e4 d2  | \
w:   |   | 
c4 e4 d2 c2 B2 A2 B2  | A4 B4 d2 c2 B2 A2 G2  | 
w:   |   | 
B2 A2 G2 ^F2 G8 z2  | z2 G4 d2 d8 z2  | \
w:   |  Sû ziş_ i   | 
e3d c2 d2 c2 d2 c4 B2  | B2 e2 d2 c2 c2 B2 B2 A2 G2  | 
w:  aş  |  *  kın *  la  ben   | 
A2 B4 A2 AG G^F G6  | G2 G4 A2 B2 ^c2 d2 e2 ^f2  | \
w:  na  |  *  lân   | 
e3d ^c2 d2 c2 d2 e4 ed  | 
w:  *  *  *  *  *  *  *  i  | 
d6 de dc BA G6  | z2 G4 d2 d8 z2  | e3d c2 d2 c2 d2 c4 B2  | 
w:  ken   SAZ  |  Sû ziş_ i   |  aş  | 
B2 e2 d2 c2 c2 B2 B2 A2 G2  | A2 B4 A2 AG G^F G6  | \
w:  *  kın *  la  ben   |  na  | 
G2 G4 A2 B2 ^c2 d2 e2 ^f2  | 
w:  *  lân   | 
e3d ^c2 d2 c2 d2 e4 ed  | d6 de dc Bc d4 z2  | \
w:  *  *  *  *  *  *  *  i  |  ken   SAZ  | 
z2 d4 a2 g2 ^f2 e2 d2 c2  | 
w:  Nev ha  i   | 
d3c B2 c2 d2 _1/4e2 f2 g4  | g2 f2 e2 d2 d2 c2 c4 B2  | \
w:  hic  |  *  râ *  nı  hiç   | 
c2 d4 c2 cB BA B6  | 
w:  duy  | 
B2 B2 A2 B2 c2 d2 e2 d2 c2  | B3A G2 A2 B2 A2 G4 ^F2  | \
w:  *  dun   |  *  *  *  *  *  *  *  mu   | 
G6 de dc Bc d4 z2  | 
w:  sen   SAZ  | 
z2 d4 a2 g2 ^f2 e2 d2 c2  | d3c B2 c2 d2 _1/4e2 f2 g4  | \
w:  Nev ha  i   |  hic  | 
g2 f2 e2 d2 d2 c2 c4 B2  | 
w:  *  râ *  nı  hiç   | 
c2 d4 c2 cB BA B6  | B2 B2 A2 B2 c2 d2 e2 d2 c2  | \
w:  duy  |  *  dun   | 
B3A G2 A2 B2 A2 G4 ^F2  | 
w:  *  *  *  *  *  *  *  mu   | 
G6 ab ag g^f g4 z2  | z2 ^f4 g2 g8-g2  | \
w:  sen   SAZ  |  Yâ re  aç  | 
a2 b4 ba ag g^f f6  | 
w:  tın   | 
z2 g4 b2 a2 g2 g4 ^f2  | ^f3e e3d d8 z2  | \
w:  bir  ba kış  |  la   | 
z2 dc _1/4B2 c2 d2 e2 ^f2 g2 _1/4b2  | 
w:  sî  | 
a2 g2 ^f2 e2 d2 c2 a4 ag  | g6 ab ag ^fg a6  | \
w:  *  *  *  *  *  *  *  ne  |  den   SAZ  | 
z2 g2 ^f2 g2 a8 z2  | 
w:  Has *  re tin   | 
^f3a g2 f2 e2 d2 c4 B2  | B2 B4 g2 f2 e2 d4 c2  | \
w:  kal  |  *  bim  pe rî  | 
d3c B3A G2 ^FG A4 z2  | 
w:  şan   | 
z2 G4 A2 B2 ^c2 d2 e2 ^f2  | e3d ^c2 d2 c2 d2 e4 ed  | \
w:  et  |  *  *  *  *  *  *  *  me  | 
d6 de dc Bc d4 z2  | 
w:  den   SAZ  | 
z2 d4 a2 g2 ^f2 e2 d2 c2  | d3c B2 c2 d2 _1/4e2 f2 g4  | \
w:  Nev ha  i   |  hic  | 
g2 f2 e2 d2 d2 c2 c4 B2  | 
w:  *  râ *  nı  hiç   | 
c2 d4 c2 cB BA B6  | B2 B2 A2 B2 c2 d2 e2 d2 c2  | \
w:  duy  |  *  dun   | 
B3A G2 A2 B2 A2 G4 ^F2  | 
w:  *  *  *  *  *  *  *  mu   | 
G6 de dc Bc d4 z2  | z2 d4 a2 g2 ^f2 e2 d2 c2  | \
w:  sen   SAZ  |  Nev ha  i   | 
d3c B2 c2 d2 _1/4e2 f2 g4  | 
w:  hic  | 
g2 f2 e2 d2 d2 c2 c4 B2  | c2 d4 c2 cB BA B6  | \
w:  *  râ *  nı  hiç   |  duy  | 
B2 B2 A2 B2 c2 d2 e2 d2 c2  | 
w:  *  dun   | 
B3A G2 A2 B2 A2 G4 ^F2  | G6 de dc BA G4 z2  | |


